build/redact/BorderVerticalOutline.svg

<svg xmlns="http://www.w3.org/2000/svg" fill="none" viewBox="0 0 24 24" focusable="false"><path d="M0 0H24V24H0z" transform="matrix(1 0 0 -1 0 24)"/><path fill="#74767B" fill-rule="evenodd" d="M7.0978 5.36116C7.27474 5.31864 7.46008 5.29595 7.6516 5.29595L8.30892 5.29595C8.66806 5.29595 8.9592 5.00584 8.9592 4.64798C8.9592 4.29011 8.66806 4 8.30892 4L7.6516 4C7.35658 4 7.0689 4.03499 6.79286 4.10134C6.49496 4.17293 6.2949 4.43828 6.2949 4.73072C6.2949 4.78102 6.30081 4.83213 6.31317 4.88318C6.39738 5.23107 6.74867 5.44507 7.0978 5.36116ZM15.6911 4C15.3319 4 15.0408 4.29011 15.0408 4.64798C15.0408 5.00584 15.3319 5.29595 15.6911 5.29595L16.3484 5.29595C16.5399 5.29595 16.7253 5.31864 16.9022 5.36116C17.2513 5.44507 17.6026 5.23107 17.6868 4.88318C17.6992 4.83213 17.7051 4.78102 17.7051 4.73072C17.7051 4.43828 17.505 4.17293 17.2071 4.10134C16.9311 4.03499 16.6434 4 16.3484 4L15.6911 4ZM11.9987 4.06338C11.6396 4.06338 11.3484 4.35348 11.3484 4.71135L11.3484 19.352C11.3484 19.7099 11.6396 20 11.9987 20C12.3579 20 12.649 19.7099 12.649 19.352L12.649 4.71135C12.649 4.35348 12.3579 4.06338 11.9987 4.06338ZM5.38429 6.93435C5.38429 6.6419 5.18422 6.37656 4.88633 6.30496C4.5372 6.22105 4.18591 6.43505 4.1017 6.78294C4.03512 7.05801 4 7.34467 4 7.63864L4 8.29379C4 8.65166 4.29114 8.94177 4.65028 8.94177C5.00943 8.94177 5.30057 8.65166 5.30057 8.29379L5.30057 7.63864C5.30057 7.4478 5.32334 7.26312 5.36601 7.08681C5.37837 7.03575 5.38429 6.98465 5.38429 6.93435ZM19.8983 6.78294C19.8141 6.43505 19.4628 6.22105 19.1137 6.30496C18.8158 6.37656 18.6157 6.6419 18.6157 6.93434C18.6157 6.98464 18.6216 7.03575 18.634 7.08681C18.6767 7.26312 18.6994 7.4478 18.6994 7.63864L18.6994 8.29379C18.6994 8.65166 18.9906 8.94177 19.3497 8.94177C19.7089 8.94177 20 8.65166 20 8.29379L20 7.63864C20 7.34465 19.9649 7.058 19.8983 6.78294ZM19.3497 10.6696C18.9906 10.6696 18.6994 10.9597 18.6994 11.3176L18.6994 12.6279C18.6994 12.9858 18.9906 13.2759 19.3497 13.2759C19.7089 13.2759 20 12.9858 20 12.6279L20 11.3176C20 10.9597 19.7089 10.6696 19.3497 10.6696ZM5.30057 11.3176C5.30057 10.9597 5.00943 10.6696 4.65028 10.6696C4.29114 10.6696 4 10.9597 4 11.3176L4 12.6279C4 12.9858 4.29114 13.2759 4.65028 13.2759C5.00943 13.2759 5.30057 12.9858 5.30057 12.6279L5.30057 11.3176ZM7.72145 11.3789C7.36231 11.3789 7.07117 11.669 7.07117 12.0269C7.07117 12.3848 7.36231 12.6749 7.72145 12.6749L8.9171 12.6749C9.27624 12.6749 9.56738 12.3848 9.56738 12.0269C9.56738 11.669 9.27624 11.3789 8.9171 11.3789L7.72145 11.3789ZM15.0723 11.3789C14.7132 11.3789 14.422 11.669 14.422 12.0269C14.422 12.3848 14.7132 12.6749 15.0723 12.6749L16.268 12.6749C16.6271 12.6749 16.9183 12.3848 16.9183 12.0269C16.9183 11.669 16.6271 11.3789 16.268 11.3789L15.0723 11.3789ZM20 15.6517C20 15.2939 19.7089 15.0037 19.3497 15.0037C18.9906 15.0037 18.6994 15.2939 18.6994 15.6517L18.6994 16.3069C18.6994 16.4977 18.6767 16.6824 18.634 16.8587C18.6216 16.9098 18.6157 16.9609 18.6157 17.0112C18.6157 17.3036 18.8158 17.569 19.1137 17.6406C19.4628 17.7245 19.8141 17.5105 19.8983 17.1626C19.9649 16.8875 20 16.6009 20 16.3069L20 15.6517ZM5.30057 15.6517C5.30057 15.2939 5.00943 15.0037 4.65028 15.0037C4.29114 15.0037 4 15.2939 4 15.6517L4 16.3069C4 16.6008 4.03512 16.8875 4.1017 17.1626C4.18591 17.5105 4.5372 17.7245 4.88633 17.6406C5.18422 17.569 5.38429 17.3036 5.38429 17.0112C5.38429 16.9609 5.37837 16.9098 5.36601 16.8587C5.32334 16.6824 5.30057 16.4977 5.30057 16.3069L5.30057 15.6517ZM7.0978 18.5844C6.74867 18.5004 6.39738 18.7144 6.31317 19.0623C6.30081 19.1134 6.29489 19.1645 6.29489 19.2148C6.29489 19.5072 6.49496 19.7726 6.79285 19.8442C7.0689 19.9105 7.35658 19.9455 7.6516 19.9455L8.30892 19.9455C8.66806 19.9455 8.9592 19.6554 8.9592 19.2975C8.9592 18.9397 8.66806 18.6496 8.30892 18.6496L7.6516 18.6496C7.46008 18.6496 7.27474 18.6269 7.0978 18.5844ZM17.7051 19.2148C17.7051 19.1645 17.6992 19.1134 17.6868 19.0623C17.6026 18.7144 17.2513 18.5004 16.9022 18.5844C16.7253 18.6269 16.5399 18.6496 16.3484 18.6496L15.6911 18.6496C15.3319 18.6496 15.0408 18.9397 15.0408 19.2975C15.0408 19.6554 15.3319 19.9455 15.6911 19.9455L16.3484 19.9455C16.6434 19.9455 16.9311 19.9105 17.2071 19.8442C17.505 19.7726 17.7051 19.5072 17.7051 19.2148Z"/></svg>

<svg xmlns="http://www.w3.org/2000/svg" fill="none" viewBox="0 0 24 24" focusable="false"><path fill="#74767B" fill-rule="evenodd" d="M7.09 5.36c.18-.05.36-.07.56-.07h.65c.36 0 .65-.29.65-.65 0-.35-.29-.64-.65-.64h-.65c-.3 0-.59.03-.86.1a.64.64 0 0 0-.48.78c.08.35.43.56.78.48M15.69 4c-.36 0-.65.29-.65.64 0 .36.29.65.65.65h.65c.2 0 .38.02.56.07.35.08.7-.13.78-.48.01-.05.02-.1.02-.15 0-.3-.2-.56-.5-.63-.27-.07-.56-.1-.86-.1zm-3.7.06c-.36 0-.65.29-.65.65v14.64c0 .35.29.65.65.65s.65-.3.65-.65V4.71c0-.36-.29-.65-.65-.65M5.38 6.93a.65.65 0 0 0-1.28-.15c-.07.27-.1.56-.1.85v.66c0 .36.29.65.65.65.35 0 .65-.29.65-.65v-.66c0-.19.02-.37.06-.55.01-.05.02-.1.02-.15m14.51-.15a.65.65 0 0 0-1.28.15c0 .05.01.1.02.15.04.18.06.36.06.55v.66a.655.655 0 0 0 1.31 0v-.66c0-.29-.04-.58-.11-.85m-.55 3.88c-.35 0-.65.29-.65.65v1.31a.655.655 0 0 0 1.31 0v-1.31c0-.36-.3-.65-.66-.65m-14.04.65c0-.36-.3-.65-.65-.65-.36 0-.65.29-.65.65v1.31c0 .36.29.65.65.65.35 0 .65-.29.65-.65zm2.42.06c-.36 0-.65.29-.65.65s.29.65.65.65h1.19c.36 0 .65-.29.65-.65s-.29-.65-.65-.65zm7.35 0c-.36 0-.65.29-.65.65s.29.65.65.65h1.19c.36 0 .65-.29.65-.65s-.29-.65-.65-.65zM20 15.65a.655.655 0 0 0-1.31 0v.65c0 .19-.02.38-.06.55-.01.05-.02.11-.02.16 0 .29.2.55.5.63.35.08.7-.13.78-.48.07-.28.11-.56.11-.86zm-14.7 0c0-.36-.3-.65-.65-.65-.36 0-.65.29-.65.65v.65c0 .3.03.58.1.86.08.35.43.56.78.48.3-.08.5-.34.5-.63 0-.05-.01-.11-.02-.16a2.4 2.4 0 0 1-.06-.55zm1.79 2.93c-.35-.08-.7.13-.78.48-.01.05-.02.1-.02.15 0 .29.2.56.5.63.27.07.56.1.86.1h.65c.36 0 .65-.29.65-.65s-.29-.65-.65-.65h-.65c-.2 0-.38-.02-.56-.06m10.61.63c0-.05-.01-.1-.02-.15a.646.646 0 0 0-.78-.48c-.18.04-.36.06-.56.06h-.65c-.36 0-.65.29-.65.65s.29.65.65.65h.65c.3 0 .59-.03.86-.1.3-.07.5-.34.5-.63"/></svg>
